!!!SOCIAL_FUNCTION:	songs used in the treatment of the sick
!!!PDT:	1929
!!!OTL: No_83_The_Women_are_Singing.krn
!!!REG: Southwest
!!!LANG: Non-Tone
!!!LING_GROUP: Uto-Aztecan
**kern
*staff1
*clefF4
*k[b-e-]
*M2/4
16F\LL
16F\JJ
=1
16d\LL
16d\
16.d\
32B-\JJk
8.B-\L
16c\Jk
=2
8.c\L
16B-\Jk
12G\L
12F\
12F\J
=3!|:
8.E-\L
16E-\Jk
12G\L
12F\
12F\J
=4||
*M3/4
8.F\L
16D\Jk
8.F\L
16D\Jk
32F\LLK
16.F\
16F\
16F\JJ
=5||
*M2/4
4F\
8.B-\L
16F\Jk
=6||
*M3/4
8.F\L
16F\Jk
8.E-\L
16E-\Jk
12G\L
12F\
12F\J
=7
8.F\L
16D\Jk
8.F\L
16D\Jk
32F\LLK
16.F\
16F\
16F\JJ
=8||
*M2/4
2F\
==
*-
